X:1
T:Lochbie, 76.76 D
T:William Henry Monk, 1866
T:Lochbie, 76.76 D
T:Public Domain
C:William Henry Monk, 1866
Z:Public Domain
%%score ( 1 2 ) ( 3 4 )
L:1/8
M:4/4
K:F
V:1 treble 
V:2 treble 
V:3 bass 
V:4 bass 
V:1
 F2 | A2 [Cc]2 [Dd]2 [A,A]2 | [Cc]4 [Cc]2 [Ad]2 | [GB]2 [Gc]2 (AG)(AB) | [EG]6 [EG]2 | %5
 [FA]2 [Gc]2 [G=B]2 [Gd]2 | [Gc]4 [Gc]2 [Ge]2 | [Fd]2 [FA]2 [F=B]2 [Fd]2 | [Ec]6 [Ec]2 | %9
 [GB]2 [FA]2 [EG]2 F2 | [B,F]4 [B,E]2 [Ed]2 | [Ec]2 [EB]2 [FA]2 [FA]2 | ([FA]4 [EG]2) [Gc]2 | %13
 [Ff]2 [Fc]2 [GB]2 [FA]2 | (F2 E2) [Fc]2 [EA]2 | F2 [FB]2 [FG]2 [EG]2 x | F6 |] %17
V:2
 F2 | A2 x6 | x8 | x4 F2 F2 | x8 | x8 | x8 | x8 | x8 | x6 F2 | x8 | x8 | x8 | x8 | d4 x4 | F2 x7 | %16
 F6 |] %17
V:3
 F,2 | A,2 C2 D2 A,2 | C4 C2 [F,D]2 | [G,C]2 [E,B,]2 [F,C]2 [A,,C]2 | [C,C]6 [C,C]2 | %5
 [F,C]2 [E,C]2 [G,D]2 [F,=B,]2 | [E,C]4 [E,C]2 [C,C]2 | [F,A,]2 [F,D]2 [G,D]2 [G,,=B,]2 | %8
 [C,C]6 [C,G,]2 | [C,E,]2 [C,F,]2 [C,B,]2 [C,A,]2 | [C,G,]4 [C,G,]2 [C,B,]2 | %11
 [C,A,]2 [C,G,]2 [D,F,]2 [=B,,D]2 | [C,C]6 [B,E]2 | [A,F]2 A,2 [E,C]2 [F,C]2 | %14
 (B,2 G,2) [F,A,]2 [C,B,]2 | [D,A,]2 [B,,D]2 C,2 z B, x | [F,A,]6 |] %17
V:4
 F,2 | A,2 C2 D2 A,2 | C4 C2 x2 | x8 | x8 | x8 | x8 | x8 | x8 | x8 | x8 | x8 | x8 | x2 A,2 x4 | %14
 B,,4 x4 | x4 C3 C,2 | x6 |] %17

